X:26
T:New Corn rigs
Z:Jack Campin - http://www.campin.me.uk
S:Blaikie MS (NLS MS.1578) p10, Blaikie #25
M:2/4
L:1/8
V:1 midi program 1 74
V:2 midi program 1 46 bass middle = d transpose -24
Q:1/4=104
K:F
[V:1] C   |FA    AG/F/   |EG GF/G/|A/B/c    E/F/G|AF`F
[V:2] z   |F2    f2      |c2 c'2  |f2       c2   |ff`f
%
[V:1] C   |FA    AG/F/   |EG GF/G/|A/B/c    E/F/G|AFF||
[V:2] z   |F2    f2      |c2 c'2  |f2       c2   |Fff||
%
[V:1] d/e/|fe/d/ c/d/c/B/|Ac cd/e/|fe/d/    d/e/f|ec c
[V:2] z   |b2    ag      |f2 Fz   |B2      =B2   |cc'c'
%
[V:1] d/e/|fe````dc      |dc`B>G  |B/A/G/F/ E/F/G|AFF|]
[V:2] b   |ac'```ba      |ba`ge   |fd       cc'  |fcF|]
W:Transcription (c) Jack Campin 2009, no mirroring or republication without permission

